X: 2
T: The Baltimore Salute
R: reel
M: 4/4
L: 1/8
K: Gmaj
A|B2ge dBGA|BdBG AEGE|DG~G2 GABd|egdB ABGA|
B2ge dBGA|BdBG AEGE|DG~G2 GABd|gedB G3:|
|:A|BG~G2 DG~G2|g2eg dB~B2|g2eg d2Bd|eaag a2ga|
bgab agef|gage dBAB|GAGE DGBe|dBAB G3:|


Tune 1849	Setting 1849

